images/build.svg

<svg width="80" height="80" viewBox="0 0 80 80" fill="none" xmlns="http://www.w3.org/2000/svg">
<path d="M48.3824 29.565L45.4993 29.1452C45.4109 29.1452 45.3225 29.1452 45.3225 29.2334L44.1019 30.7994C44.0322 30.9015 44.0009 31.0249 44.0135 31.1478C44.0135 31.236 43.9251 31.4123 43.841 31.3242L42.8771 31.0639C42.7045 31.0639 42.5278 31.0639 42.4562 31.236L38.5251 36.274C38.4367 36.3622 38.3483 36.3622 38.1757 36.3622L36.69 35.6653C36.6269 35.6258 36.554 35.6048 36.4795 35.6048C36.4051 35.6048 36.3321 35.6258 36.2691 35.6653L35.4441 36.1943C35.3815 36.2348 35.3084 36.2563 35.2337 36.2563C35.159 36.2563 35.0859 36.2348 35.0233 36.1943L34.6739 36.0221C34.617 35.9965 34.5554 35.9829 34.493 35.9823C34.4306 35.9817 34.3688 35.994 34.3114 36.0185C34.254 36.0429 34.2023 36.079 34.1597 36.1245C34.117 36.1699 34.0843 36.2237 34.0636 36.2824L33.7985 37.5C33.767 37.6293 33.7755 37.765 33.8228 37.8894C33.8701 38.0138 33.9541 38.121 34.0636 38.1969L34.7623 38.6167L36.5932 39.7503L37.4686 40.2709C37.5915 40.3429 37.7344 40.3736 37.8761 40.3584C38.0178 40.3433 38.1508 40.2832 38.2557 40.1869L39.7373 38.877C39.8648 38.8046 40.0124 38.7751 40.1581 38.7931L40.579 39.0534C40.7516 39.1415 40.9284 39.1415 40.9999 38.9652L41.7828 38.2683C41.8366 38.2142 41.9052 38.177 41.98 38.1614C42.0548 38.1457 42.1326 38.1522 42.2037 38.1801L43.3401 38.7049C43.4277 38.7336 43.521 38.7405 43.612 38.7251C43.7029 38.7098 43.7887 38.6726 43.862 38.6167L44.3881 37.9198L48.3192 32.8818C48.4918 32.6173 48.4034 32.2688 48.0541 32.2688L47.2291 32.0841C47.0524 32.0841 46.9682 31.8238 47.0524 31.6642L48.4497 30.0101C48.6433 29.8337 48.5549 29.565 48.3824 29.565Z" fill="white"/>
<path d="M35.28 39.7671C35.1916 39.6789 35.1074 39.7671 35.1074 39.8553L35.5283 40.9846V41.2491L35.179 42.727C35.173 42.7748 35.1778 42.8234 35.1931 42.8692C35.2084 42.915 35.2338 42.9567 35.2674 42.9915L36.3154 43.7724C36.3637 43.8146 36.4258 43.8379 36.49 43.8379C36.5543 43.8379 36.6164 43.8146 36.6647 43.7724L37.8011 42.8151C37.8351 42.7817 37.8763 42.7564 37.9215 42.7411C37.9667 42.7259 38.0147 42.721 38.0621 42.727L39.2869 42.5548C39.3711 42.5548 39.3711 42.4667 39.2869 42.3785L35.28 39.7671Z" fill="white"/>
<path d="M34.9306 43.5119C34.9158 43.4911 34.8962 43.4741 34.8735 43.4624C34.8508 43.4507 34.8257 43.4446 34.8001 43.4446C34.7746 43.4446 34.7494 43.4507 34.7267 43.4624C34.704 43.4741 34.6844 43.4911 34.6696 43.5119L33.7942 43.9317C33.7827 43.9317 33.7714 43.934 33.761 43.9385C33.7505 43.943 33.741 43.9495 33.7331 43.9578C33.7252 43.966 33.7191 43.9758 33.7151 43.9865C33.7112 43.9972 33.7094 44.0085 33.71 44.0199L31.7865 48.7221H31.8749L32.2958 48.5499V48.6339L30.8984 50.901C30.8984 50.9892 30.8984 50.9892 30.9826 50.9892L35.8734 46.0225C35.9618 46.0225 35.9618 45.9344 35.9618 45.8462L36.0502 44.5405C36.0502 44.4523 36.0502 44.3684 35.9618 44.3684L34.9306 43.5119Z" fill="white"/>
<path d="M29.9976 80.0001L28.0615 76.3853L31.4287 74.0552L32.0768 74.9578L31.012 75.6757C30.8301 75.8062 30.6403 75.9254 30.4438 76.0326C30.2661 76.1334 30.0803 76.2191 29.8882 76.2887L33.5079 77.162L33.2595 78.1864L29.6315 77.3089C29.7267 77.4065 29.8153 77.5102 29.8966 77.6196C29.9766 77.7246 30.0523 77.8379 30.1281 77.9597L30.3596 78.3795L30.9741 79.5047L29.9976 80.0001Z" fill="#FFCD1E"/>
<path d="M14.1385 66.1875C14.7152 65.5283 15.6327 65.4611 16.4534 66.1875L18.137 67.6611L14.7699 71.4942L13.4314 70.2893C12.556 69.5252 12.2361 68.7233 12.8506 68.0179C12.983 67.8522 13.1613 67.7289 13.3633 67.6632C13.5652 67.5976 13.7821 67.5924 13.987 67.6485C13.8359 67.4261 13.7683 67.1577 13.796 66.8904C13.8237 66.6232 13.945 66.3743 14.1385 66.1875ZM15.3423 69.3866L14.6604 68.7946C14.2395 68.421 13.8776 68.316 13.6587 68.5679C13.4398 68.8198 13.5914 69.1515 14.0249 69.5252L14.7025 70.1171L15.3423 69.3866ZM14.7951 66.9012C14.4963 67.2454 14.6562 67.6653 15.1276 68.0767L15.9021 68.7485L16.7817 67.7451L16.0073 67.0733C15.5359 66.6619 15.0982 66.5527 14.7951 66.9012Z" fill="white"/>
<path d="M6.55396 62.686L8.87729 60.9227C9.94636 60.1082 11.1712 60.125 11.9582 61.1536C12.7453 62.1822 12.4338 63.3662 11.3648 64.1765L9.04143 65.9398L8.4564 65.1757L10.8723 63.3368C11.0027 63.2576 11.115 63.152 11.2019 63.0268C11.2888 62.9015 11.3484 62.7595 11.3767 62.6099C11.4051 62.4602 11.4016 62.3063 11.3666 62.1581C11.3315 62.0098 11.2656 61.8706 11.1731 61.7494C11.0806 61.6282 10.9637 61.5277 10.8298 61.4545C10.6959 61.3813 10.5481 61.3369 10.396 61.3243C10.2438 61.3116 10.0907 61.331 9.94655 61.3812C9.80239 61.4314 9.6704 61.5112 9.55913 61.6155L7.139 63.4502L6.55396 62.686Z" fill="white"/>
<path d="M8.94901 56.7536L4.43704 59.1257L3.98669 58.286L8.50708 55.9013L8.94901 56.7536Z" fill="white"/>
<path d="M5.17336 50.2587L6.09091 49.9438L7.0758 52.7861L2.24816 54.4655L1.9325 53.5545L5.83838 52.211L5.17336 50.2587Z" fill="white"/>
<path d="M2.19362 42.9537C3.59098 42.7606 4.84945 43.5625 5.08094 45.2376L5.31244 46.917L0.261726 47.6097L0.0344403 45.9303C-0.201259 44.209 0.800467 43.1426 2.19362 42.9537ZM2.3241 43.9067C2.11939 43.9251 1.92061 43.985 1.73997 44.0827C1.55934 44.1805 1.40066 44.3142 1.27371 44.4754C1.14677 44.6366 1.05424 44.8221 1.00181 45.0203C0.949373 45.2185 0.938147 45.4253 0.968822 45.6281L1.08667 46.5097L4.21811 46.0899L4.09605 45.2124C4.07113 45.009 4.005 44.8128 3.9017 44.6357C3.79839 44.4586 3.66006 44.3043 3.49511 44.1822C3.33017 44.0601 3.14204 43.9727 2.94218 43.9253C2.74232 43.878 2.53489 43.8716 2.33251 43.9067H2.3241Z" fill="white"/>
<path d="M0.73726 30.4046L1.69268 30.5935L1.43173 31.895L5.48493 32.7011L5.29552 33.6457L1.24232 32.8397L0.981372 34.137L0.0301514 33.948L0.73726 30.4046Z" fill="white"/>
<path d="M3.52347 22.684L8.22904 24.653L7.85445 25.5431L5.94781 24.7454L5.10603 26.7438L7.01267 27.5415L6.63807 28.4274L1.9325 26.4583L2.30708 25.5683L4.20952 26.366L5.05131 24.3675L3.14887 23.5698L3.52347 22.684Z" fill="white"/>
<path d="M7.00013 18.6492L7.90504 19.2622L8.9194 17.7675L9.7233 18.3091L8.70895 19.8037L9.61387 20.4167L10.8345 18.624L11.6384 19.1656L9.87482 21.756L5.66589 18.9011L7.42522 16.3107L8.22913 16.8565L7.00013 18.6492Z" fill="white"/>
<path d="M17.1733 13.3046L14.0503 9.27841L16.5336 7.36395L17.127 8.12806L15.4098 9.45474L16.0832 10.3196L17.5142 9.21123L18.1119 9.97954L16.6724 11.0921L17.9351 12.7211L17.1733 13.3046Z" fill="white"/>
<path d="M23.5708 3.36703L24.8797 5.96583C25.4816 7.16237 25.2417 8.3589 24.0843 8.94248C22.9268 9.52605 21.8156 9.00126 21.2138 7.80052L19.9048 5.21432L20.7676 4.79448L22.1313 7.49824C22.1965 7.62587 22.2863 7.73944 22.3955 7.83246C22.5048 7.92549 22.6313 7.99614 22.7679 8.04039C22.9045 8.08464 23.0485 8.10161 23.1916 8.09035C23.3348 8.07909 23.4744 8.03981 23.6023 7.97475C23.7303 7.90969 23.8441 7.82013 23.9374 7.71118C24.0307 7.60223 24.1015 7.47603 24.1458 7.33978C24.1902 7.20352 24.2072 7.05988 24.1959 6.91707C24.1847 6.77425 24.1453 6.63506 24.08 6.50742L22.7164 3.79947L23.5708 3.36703Z" fill="white"/>
<path d="M30.8144 0.990875L31.0711 1.92291L29.8084 2.27558L30.9069 6.25144L29.9726 6.50334L28.8782 2.53168L27.6156 2.88434L27.3546 1.94811L30.8144 0.990875Z" fill="white"/>
<path d="M38.8619 0L39.0724 2.90108C39.1692 4.23616 38.4831 5.24797 37.191 5.34033C35.8989 5.4327 35.0865 4.53005 34.9813 3.19076L34.7709 0.293885L35.7347 0.222513L35.9494 3.24534C35.9421 3.39945 35.9676 3.55335 36.0243 3.69689C36.081 3.84044 36.1675 3.97037 36.2782 4.07811C36.3889 4.18586 36.5213 4.26897 36.6665 4.32198C36.8118 4.37498 36.9666 4.39667 37.1209 4.38562C37.2752 4.37456 37.4253 4.33101 37.5615 4.25784C37.6977 4.18467 37.8167 4.08353 37.9108 3.96111C38.005 3.83869 38.072 3.69775 38.1075 3.5476C38.1431 3.39745 38.1463 3.24149 38.117 3.09L37.8981 0.0671739L38.8619 0Z" fill="white"/>
<path d="M45.1247 5.52967L44.2114 3.69918L43.6347 3.62781L43.4201 5.30716L42.4604 5.18121L43.1128 0.143158L44.91 0.37407C46.219 0.542005 46.7325 1.3271 46.5936 2.30532C46.5531 2.66175 46.3993 2.99589 46.1547 3.2588C45.9101 3.52171 45.5875 3.69958 45.2341 3.76636L46.2779 5.68501L45.1247 5.52967ZM43.761 2.66638L44.7206 2.78813C44.8222 2.81015 44.9271 2.81168 45.0292 2.79263C45.1313 2.77358 45.2286 2.73433 45.3152 2.67721C45.4019 2.62009 45.4763 2.54625 45.5339 2.46002C45.5915 2.3738 45.6313 2.27695 45.6508 2.17517C45.664 2.06992 45.6545 1.96308 45.623 1.86176C45.5916 1.76044 45.5389 1.66696 45.4684 1.58754C45.3979 1.50811 45.3113 1.44456 45.2143 1.4011C45.1173 1.35764 45.0122 1.33528 44.9058 1.3355L43.9462 1.21374L43.761 2.66638Z" fill="white"/>
<path d="M51.4928 2.7961L51.1519 3.8331L52.8692 4.39988L52.5661 5.31932L50.8489 4.75254L50.508 5.78954L52.5703 6.46967L52.2799 7.38912L49.3042 6.4067L50.8994 1.57437L53.8793 2.55259L53.5763 3.47623L51.4928 2.7961Z" fill="white"/>
<path d="M65.0329 7.64127L65.3107 11.7305L61.2659 12.4694L61.0471 11.3736L62.3097 11.1553C62.5412 11.1133 62.7643 11.0797 62.9748 11.0629C63.1778 11.0461 63.382 11.0461 63.585 11.0629L60.6388 8.77902L61.287 7.93935L64.2332 10.2233C64.1857 10.0961 64.1477 9.9656 64.1196 9.83282C64.0874 9.6946 64.0649 9.55432 64.0522 9.41298C64.0522 9.27443 64.0186 9.1149 64.0059 8.94696L63.9091 7.68745L65.0329 7.64127Z" fill="#FFCD1E"/>
<path d="M71.8935 26.1558L72.9541 24.4093L72.71 23.8845L71.1695 24.5982L70.7487 23.725L75.3785 21.5838L76.1445 23.2212C76.7001 24.4135 76.3086 25.2658 75.4164 25.6814C75.0922 25.8375 74.7264 25.8859 74.3726 25.8194C74.0188 25.7529 73.6958 25.5751 73.4508 25.312L72.3817 27.218L71.8935 26.1558ZM73.5771 23.4773L73.9979 24.3505C74.0334 24.4482 74.0882 24.5378 74.159 24.614C74.2298 24.6902 74.3153 24.7514 74.4102 24.7941C74.5052 24.8368 74.6078 24.86 74.712 24.8624C74.8161 24.8648 74.9196 24.8464 75.0165 24.8082C75.1114 24.7624 75.1955 24.6971 75.2633 24.6166C75.331 24.536 75.3809 24.4421 75.4095 24.3409C75.4382 24.2397 75.445 24.1336 75.4295 24.0296C75.414 23.9256 75.3765 23.8261 75.3195 23.7376L74.8987 22.8643L73.5771 23.4773Z" fill="white"/>
<path d="M76.9651 34.2758C76.453 34.3877 75.9191 34.346 75.4307 34.1559C74.9423 33.9658 74.5213 33.6357 74.2206 33.2073C73.92 32.7789 73.7531 32.2713 73.7412 31.7485C73.7292 31.2257 73.8726 30.711 74.1534 30.2694C74.4341 29.8277 74.8396 29.4789 75.3188 29.2667C75.798 29.0545 76.3294 28.9886 76.8461 29.0771C77.3628 29.1657 77.8416 29.4048 78.2223 29.7644C78.603 30.1239 78.8685 30.5878 78.9853 31.0976C79.1397 31.7863 79.0136 32.5079 78.6348 33.1039C78.256 33.6998 77.6554 34.1214 76.9651 34.2758ZM76.7504 33.3353C77.0735 33.2582 77.3666 33.0875 77.5926 32.8446C77.8187 32.6018 77.9676 32.2976 78.0208 31.9705C78.0739 31.6433 78.0287 31.3078 77.8911 31.0062C77.7534 30.7046 77.5294 30.4503 77.2471 30.2755C76.9649 30.1006 76.6371 30.0129 76.305 30.0235C75.973 30.0341 75.6514 30.1425 75.381 30.335C75.1105 30.5275 74.9032 30.7955 74.7852 31.1052C74.6671 31.415 74.6435 31.7527 74.7175 32.0758C74.7661 32.293 74.8575 32.4984 74.9863 32.68C75.1152 32.8617 75.2789 33.0159 75.4681 33.1339C75.6572 33.2519 75.868 33.3312 76.0881 33.3672C76.3083 33.4032 76.5334 33.3952 76.7504 33.3437V33.3353Z" fill="white"/>
<path d="M76.1696 41.6186L75.2941 42.0006C74.8942 41.5503 74.6675 40.9731 74.6544 40.3716C74.6489 40.0215 74.7125 39.6738 74.8417 39.3482C74.9709 39.0227 75.1632 38.7257 75.4074 38.4742C75.6517 38.2228 75.9432 38.0218 76.2654 37.8827C76.5875 37.7436 76.934 37.6692 77.285 37.6637C77.6359 37.6582 77.9846 37.7217 78.311 37.8506C78.6373 37.9794 78.9351 38.1712 79.1872 38.4149C79.4392 38.6585 79.6407 38.9493 79.7802 39.2707C79.9196 39.592 79.9942 39.9376 79.9997 40.2877C80.0088 40.8878 79.8028 41.4714 79.4189 41.9334L78.5308 41.5808C78.8565 41.2428 79.0351 40.79 79.0274 40.3213C79.011 40.0491 78.9284 39.785 78.7867 39.5518C78.645 39.3186 78.4485 39.1234 78.2142 38.9829C77.9799 38.8425 77.7148 38.761 77.4419 38.7457C77.169 38.7303 76.8964 38.7814 76.6477 38.8947C76.3991 39.0079 76.1818 39.1799 76.0147 39.3956C75.8475 39.6114 75.7356 39.8645 75.6885 40.1331C75.6414 40.4017 75.6607 40.6777 75.7445 40.9373C75.8283 41.1968 75.9742 41.4321 76.1696 41.6228V41.6186Z" fill="white"/>
<path d="M73.6653 49.0833L73.9052 47.8867L76.4642 46.4467L74.2756 46.0269L74.465 45.0822L79.4694 46.0688L79.28 47.0135L77.2092 46.5936L78.9349 48.76L78.695 49.9523L76.7252 47.3577L73.6653 49.0833Z" fill="white"/>
<path d="M76.2115 54.3354L75.1972 53.9156L74.5111 55.595L73.6146 55.2297L74.2965 53.5504L73.2863 53.1305L72.4445 55.1331L71.5438 54.7679L72.7265 51.871L77.4532 53.7939L76.2662 56.6907L75.3697 56.3255L76.2115 54.3354Z" fill="white"/>
<path d="M72.4826 63.2696L71.6829 62.7322L72.4027 61.6196L68.9303 59.3861L69.4522 58.58L72.9246 60.8135L73.6485 59.701L74.465 60.2257L72.4826 63.2696Z" fill="white"/>
<path d="M64.6792 66.7963C64.0184 66.1665 63.9763 65.1631 64.9065 64.1975C65.1667 63.9148 65.4828 63.689 65.8348 63.5343C66.1869 63.3797 66.5673 63.2996 66.952 63.299L67.2298 64.2352C66.9279 64.2266 66.6273 64.2795 66.3465 64.3907C66.0657 64.5019 65.8106 64.669 65.5968 64.8818C65.1338 65.3646 65.0454 65.8138 65.3021 66.0615C65.5589 66.3092 65.9419 66.1707 66.4722 65.7635C67.6297 64.8776 68.362 64.8986 68.9176 65.4318C69.4732 65.965 69.5952 67.0272 68.7198 67.9508C68.2864 68.4161 67.702 68.7136 67.0699 68.7905L66.75 67.9214C67.2305 67.8611 67.676 67.6389 68.0127 67.2917C68.3704 66.9222 68.5767 66.4982 68.2821 66.2127C67.9874 65.9272 67.7349 66.0951 67.1372 66.536C66.2576 67.1699 65.4663 67.552 64.6792 66.7963Z" fill="white"/>
<path d="M62.8022 71.6578L62.1709 70.7678L60.6935 71.809L60.1338 71.0197L61.6111 69.9785L60.9798 69.0884L59.2036 70.3479L58.6438 69.5544L61.207 67.7491L64.1533 71.9013L61.59 73.7108L61.0303 72.9173L62.8022 71.6578Z" fill="white"/>
<path d="M53.353 73.3414L55.3102 72.4723L55.2597 71.4353L56.253 71.0155L56.4087 76.5196L55.609 76.8722L51.6232 73.0643L52.6123 72.6445L53.353 73.3414ZM54.0854 74.0761L55.4659 75.4532L55.3649 73.5093L54.0854 74.0761Z" fill="white"/>
<path d="M47.2964 79.4334L47.0691 78.4888L48.3612 78.1823L47.4058 74.1728L48.3444 73.9503L49.2998 77.9598L50.592 77.6533L50.8192 78.5937L47.2964 79.4334Z" fill="white"/>
</svg>

<svg width="80" height="80" fill="none" xmlns="http://www.w3.org/2000/svg"><path d="M48.382 29.565l-2.883-.42c-.088 0-.177 0-.177.088l-1.22 1.566a.523.523 0 00-.088.349c0 .088-.089.264-.173.176l-.964-.26c-.172 0-.35 0-.42.172l-3.932 5.038c-.088.088-.177.088-.35.088l-1.485-.697a.397.397 0 00-.42 0l-.826.53a.387.387 0 01-.42 0l-.35-.173a.452.452 0 00-.61.26l-.266 1.218a.657.657 0 00.266.697l.698.42 1.831 1.133.876.52a.666.666 0 00.787-.083l1.481-1.31a.683.683 0 01.421-.084l.421.26c.173.089.35.089.42-.088l.784-.697a.39.39 0 01.42-.088l1.137.525a.569.569 0 00.522-.088l.526-.697 3.931-5.038c.173-.265.084-.613-.265-.613l-.825-.185c-.177 0-.26-.26-.177-.42l1.398-1.654c.193-.176.105-.445-.068-.445zM35.28 39.767c-.088-.088-.173 0-.173.088l.421 1.13v.264l-.349 1.478a.322.322 0 00.088.265l1.048.78a.266.266 0 00.35 0l1.136-.957a.317.317 0 01.261-.088l1.225-.172c.084 0 .084-.088 0-.176l-4.007-2.612zM34.93 43.512a.16.16 0 00-.26 0l-.876.42a.084.084 0 00-.06.026.083.083 0 00-.024.062l-1.924 4.702h.089l.42-.172v.084L30.899 50.9c0 .088 0 .088.085.088l4.89-4.966c.089 0 .089-.089.089-.177l.088-1.305c0-.089 0-.173-.088-.173l-1.031-.856z" fill="#fff"/><path d="M29.998 80l-1.937-3.615 3.368-2.33.648.903-1.065.718c-.182.13-.372.25-.568.357-.178.1-.364.186-.556.256l3.62.873-.248 1.024-3.628-.877c.095.097.183.201.265.31.08.106.155.219.231.34l.232.42.614 1.126-.976.495z" fill="#FFCD1E"/><path d="M14.139 66.188c.576-.66 1.494-.727 2.314 0l1.684 1.473-3.367 3.833-1.339-1.205c-.875-.764-1.195-1.566-.58-2.271a1.086 1.086 0 011.136-.37 1.14 1.14 0 01.152-1.46zm1.203 3.199l-.682-.592c-.42-.374-.782-.479-1.001-.227-.22.252-.068.584.366.957l.678.592.64-.73zm-.547-2.486c-.299.344-.139.764.333 1.176l.774.672.88-1.004-.775-.672c-.471-.411-.909-.52-1.212-.172zM6.554 62.686l2.323-1.763c1.07-.815 2.294-.798 3.081.23.787 1.03.476 2.213-.593 3.024L9.04 65.94l-.585-.764 2.416-1.84a1.09 1.09 0 00.495-1.178 1.086 1.086 0 00-.971-.834 1.09 1.09 0 00-.837.291L7.14 63.45l-.585-.764zM8.949 56.754l-4.512 2.372-.45-.84 4.52-2.385.442.853zM5.173 50.259l.918-.315.985 2.842-4.828 1.68-.316-.912 3.906-1.343-.665-1.952zM2.194 42.954c1.397-.193 2.655.608 2.887 2.284l.231 1.679-5.05.693-.228-1.68C-.2 44.21.8 43.143 2.194 42.954zm.13.953a1.513 1.513 0 00-1.05.568 1.502 1.502 0 00-.305 1.153l.118.882 3.131-.42-.122-.878a1.509 1.509 0 00-1.154-1.287 1.52 1.52 0 00-.61-.018h-.008zM.737 30.405l.956.188-.261 1.302 4.053.806-.19.945-4.053-.806-.26 1.297-.952-.189.707-3.543zM3.523 22.684l4.706 1.969-.375.89-1.906-.798-.842 1.999 1.907.797-.375.886-4.705-1.969.374-.89 1.903.798.841-1.998-1.902-.798.374-.886zM7 18.65l.905.612 1.014-1.495.804.542-1.014 1.495.905.613 1.22-1.793.804.542-1.763 2.59-4.21-2.855 1.76-2.59.804.546L7 18.649zM17.173 13.305L14.05 9.278l2.484-1.914.593.764-1.717 1.327.673.865 1.431-1.109.598.769-1.44 1.112 1.263 1.63-.762.583zM23.57 3.367l1.31 2.599c.602 1.196.362 2.393-.796 2.976-1.157.584-2.268.06-2.87-1.141l-1.31-2.587.864-.42 1.363 2.704a1.091 1.091 0 001.471.477 1.093 1.093 0 00.594-1.058 1.086 1.086 0 00-.116-.41L22.716 3.8l.855-.432zM30.814.99l.257.933-1.263.353 1.099 3.975-.934.252-1.095-3.971-1.262.352-.261-.936 3.46-.957zM38.862 0l.21 2.901c.097 1.335-.589 2.347-1.881 2.44-1.292.092-2.105-.811-2.21-2.15l-.21-2.897.964-.071.214 3.022a1.089 1.089 0 00.718 1.077 1.097 1.097 0 001.44-.774c.036-.15.04-.307.01-.458L37.898.067 38.862 0zM45.125 5.53L44.21 3.7l-.576-.072-.215 1.68-.96-.127.653-5.038 1.797.231c1.309.168 1.823.953 1.684 1.931a1.678 1.678 0 01-1.36 1.461l1.044 1.919-1.153-.155zM43.76 2.666l.96.122a.78.78 0 00.93-.613.744.744 0 00-.437-.774.75.75 0 00-.308-.066l-.96-.121-.185 1.452zM51.493 2.796l-.341 1.037 1.717.567-.303.92-1.717-.567-.341 1.037 2.062.68-.29.92-2.976-.983L50.9 1.574l2.98.979-.303.923-2.083-.68z" fill="#fff"/><path d="M65.033 7.641l.278 4.09-4.045.738-.219-1.095 1.263-.219c.231-.042.454-.075.665-.092a3.7 3.7 0 01.61 0l-2.946-2.284.648-.84 2.946 2.284a2.735 2.735 0 01-.113-.39 3.056 3.056 0 01-.068-.42c0-.139-.033-.298-.046-.466l-.097-1.26 1.124-.046z" fill="#FFCD1E"/><path d="M71.894 26.156l1.06-1.747-.244-.524-1.54.713-.421-.873 4.63-2.141.765 1.637c.556 1.192.165 2.045-.728 2.46a1.688 1.688 0 01-1.965-.369l-1.07 1.906-.487-1.062zm1.683-2.679l.42.873a.777.777 0 001.02.458.747.747 0 00.413-.778.74.74 0 00-.11-.292l-.421-.874-1.322.613zM76.965 34.276a2.663 2.663 0 01-2.744-1.069 2.645 2.645 0 011.098-3.94 2.662 2.662 0 012.903.497c.381.36.647.824.763 1.334.155.688.029 1.41-.35 2.006a2.668 2.668 0 01-1.67 1.172zm-.215-.94a1.684 1.684 0 001.27-1.365 1.676 1.676 0 00-.773-1.695 1.686 1.686 0 00-2.462.83c-.118.309-.141.647-.067.97a1.678 1.678 0 001.37 1.291c.22.036.445.028.662-.023v-.009zM76.17 41.619l-.876.382a2.536 2.536 0 01-.64-1.63 2.661 2.661 0 011.611-2.488 2.678 2.678 0 013.515 1.388c.14.321.214.667.22 1.017.009.6-.197 1.183-.581 1.645l-.888-.352c.325-.338.504-.791.496-1.26a1.676 1.676 0 00-.813-1.338 1.686 1.686 0 00-2.525 1.15 1.676 1.676 0 00.48 1.49v-.004zM73.665 49.083l.24-1.196 2.56-1.44-2.19-.42.19-.945 5.004.987-.189.944-2.07-.42 1.725 2.167-.24 1.192-1.97-2.594-3.06 1.725zM76.212 54.335l-1.015-.42-.686 1.68-.896-.365.681-1.68-1.01-.42-.841 2.003-.901-.365 1.183-2.897 4.726 1.923-1.187 2.897-.896-.366.841-1.99zM72.483 63.27l-.8-.538.72-1.112-3.473-2.234.522-.806 3.473 2.233.724-1.112.816.525-1.982 3.044zM64.68 66.796c-.662-.63-.704-1.633.226-2.599a2.784 2.784 0 012.046-.898l.278.936a2.227 2.227 0 00-1.633.647c-.463.483-.552.932-.295 1.18.257.247.64.109 1.17-.299 1.158-.885 1.89-.864 2.446-.331.555.533.677 1.595-.198 2.519a2.7 2.7 0 01-1.65.84l-.32-.87c.48-.06.926-.282 1.263-.63.357-.369.564-.793.27-1.078-.296-.286-.548-.118-1.146.323-.88.634-1.67 1.016-2.458.26zM62.802 71.658l-.631-.89-1.477 1.041-.56-.79 1.477-1.04-.631-.89-1.776 1.259-.56-.794 2.563-1.805 2.946 4.152-2.563 1.81-.56-.794 1.772-1.26zM53.353 73.341l1.957-.869-.05-1.037.993-.42.156 5.505-.8.352-3.986-3.808.99-.42.74.697zm.732.735l1.38 1.377-.1-1.944-1.28.567zM47.296 79.433l-.227-.944 1.292-.307-.955-4.01.938-.222.956 4.01 1.292-.307.227.94-3.523.84z" fill="#fff"/></svg>
